static/img/kroki/814bea02bee8b273a126af9550f1735c.svg

<?xml version="1.0" encoding="us-ascii" standalone="no"?><svg xmlns="http://www.w3.org/2000/svg" xmlns:xlink="http://www.w3.org/1999/xlink" contentStyleType="text/css" height="679px" preserveAspectRatio="none" style="width:407px;height:679px;" version="1.1" viewBox="0 0 407 679" width="407px" zoomAndPan="magnify"><defs/><g><!--class aws_organizational_root--><g id="elem_aws_organizational_root"><rect codeLine="23" fill="#3D176E" height="39.7891" id="aws_organizational_root" rx="2.5" ry="2.5" style="stroke:#000D19;stroke-width:0.5;" width="246" x="67.5" y="633.84"/><ellipse cx="82.5" cy="653.7345" fill="#ADD1B2" rx="11" ry="11" style="stroke:#181818;stroke-width:1.0;"/><path d="M85.4688,659.3752 Q84.8906,659.672 84.25,659.8127 Q83.6094,659.9689 82.9063,659.9689 Q80.4063,659.9689 79.0781,658.3283 Q77.7656,656.672 77.7656,653.547 Q77.7656,650.422 79.0781,648.7658 Q80.4063,647.1095 82.9063,647.1095 Q83.6094,647.1095 84.25,647.2658 Q84.9063,647.422 85.4688,647.7189 L85.4688,650.4377 Q84.8438,649.8595 84.25,649.5939 Q83.6563,649.3127 83.0313,649.3127 Q81.6875,649.3127 81,650.3908 Q80.3125,651.4533 80.3125,653.547 Q80.3125,655.6408 81,656.7189 Q81.6875,657.7814 83.0313,657.7814 Q83.6563,657.7814 84.25,657.5158 Q84.8438,657.2345 85.4688,656.6564 L85.4688,659.3752 Z " fill="#000000"/><text fill="#D9B8FF" font-family="Helvetica" font-size="17" lengthAdjust="spacing" textLength="204" x="101.5" y="659.6198">aws_organizational_root</text></g><!--class aws_resource--><g id="elem_aws_resource"><rect codeLine="26" fill="#3D176E" height="74.0859" id="aws_resource" rx="2.5" ry="2.5" style="stroke:#000D19;stroke-width:0.5;" width="155" x="7" y="438.76"/><ellipse cx="22" cy="458.6545" fill="#ADD1B2" rx="11" ry="11" style="stroke:#181818;stroke-width:1.0;"/><path d="M24.9688,464.2952 Q24.3906,464.592 23.75,464.7327 Q23.1094,464.8889 22.4063,464.8889 Q19.9063,464.8889 18.5781,463.2483 Q17.2656,461.592 17.2656,458.467 Q17.2656,455.342 18.5781,453.6858 Q19.9063,452.0295 22.4063,452.0295 Q23.1094,452.0295 23.75,452.1858 Q24.4063,452.342 24.9688,452.6389 L24.9688,455.3577 Q24.3438,454.7795 23.75,454.5139 Q23.1563,454.2327 22.5313,454.2327 Q21.1875,454.2327 20.5,455.3108 Q19.8125,456.3733 19.8125,458.467 Q19.8125,460.5608 20.5,461.6389 Q21.1875,462.7014 22.5313,462.7014 Q23.1563,462.7014 23.75,462.4358 Q24.3438,462.1545 24.9688,461.5764 L24.9688,464.2952 Z " fill="#000000"/><text fill="#D9B8FF" font-family="Helvetica" font-size="17" lengthAdjust="spacing" textLength="113" x="41" y="464.5398">aws_resource</text><line style="stroke:#000D19;stroke-width:0.5;" x1="8" x2="161" y1="478.5491" y2="478.5491"/><text fill="#D9B8FF" font-family="sans-serif" font-size="14" font-weight="bold" lengthAdjust="spacing" textLength="26" x="18" y="500.5442">arn</text><text fill="#D9B8FF" font-family="sans-serif" font-size="14" lengthAdjust="spacing" textLength="48" x="44" y="500.5442">: string</text></g><!--class organizational_root--><g id="elem_organizational_root"><rect codeLine="29" fill="#3D176E" height="39.7891" id="organizational_root" rx="2.5" ry="2.5" style="stroke:#000D19;stroke-width:0.5;" width="204" x="196.5" y="455.9"/><ellipse cx="211.5" cy="475.7945" fill="#ADD1B2" rx="11" ry="11" style="stroke:#181818;stroke-width:1.0;"/><path d="M214.4688,481.4352 Q213.8906,481.732 213.25,481.8727 Q212.6094,482.0289 211.9063,482.0289 Q209.4063,482.0289 208.0781,480.3883 Q206.7656,478.732 206.7656,475.607 Q206.7656,472.482 208.0781,470.8258 Q209.4063,469.1695 211.9063,469.1695 Q212.6094,469.1695 213.25,469.3258 Q213.9063,469.482 214.4688,469.7789 L214.4688,472.4977 Q213.8438,471.9195 213.25,471.6539 Q212.6563,471.3727 212.0313,471.3727 Q210.6875,471.3727 210,472.4508 Q209.3125,473.5133 209.3125,475.607 Q209.3125,477.7008 210,478.7789 Q210.6875,479.8414 212.0313,479.8414 Q212.6563,479.8414 213.25,479.5758 Q213.8438,479.2945 214.4688,478.7164 L214.4688,481.4352 Z " fill="#000000"/><text fill="#D9B8FF" font-family="Helvetica" font-size="17" lengthAdjust="spacing" textLength="162" x="230.5" y="481.6798">organizational_root</text></g><!--class resource--><g id="elem_resource"><rect codeLine="32" fill="#3D176E" height="310.7578" id="resource" rx="2.5" ry="2.5" style="stroke:#000D19;stroke-width:0.5;" width="227" x="77" y="7"/><ellipse cx="145.75" cy="26.8945" fill="#ADD1B2" rx="11" ry="11" style="stroke:#181818;stroke-width:1.0;"/><path d="M148.7188,32.5352 Q148.1406,32.832 147.5,32.9727 Q146.8594,33.1289 146.1563,33.1289 Q143.6563,33.1289 142.3281,31.4883 Q141.0156,29.832 141.0156,26.707 Q141.0156,23.582 142.3281,21.9258 Q143.6563,20.2695 146.1563,20.2695 Q146.8594,20.2695 147.5,20.4258 Q148.1563,20.582 148.7188,20.8789 L148.7188,23.5977 Q148.0938,23.0195 147.5,22.7539 Q146.9063,22.4727 146.2813,22.4727 Q144.9375,22.4727 144.25,23.5508 Q143.5625,24.6133 143.5625,26.707 Q143.5625,28.8008 144.25,29.8789 Q144.9375,30.9414 146.2813,30.9414 Q146.9063,30.9414 147.5,30.6758 Q148.0938,30.3945 148.7188,29.8164 L148.7188,32.5352 Z " fill="#000000"/><text fill="#D9B8FF" font-family="Helvetica" font-size="17" lengthAdjust="spacing" textLength="71" x="171.25" y="32.7798">resource</text><line style="stroke:#000D19;stroke-width:0.5;" x1="78" x2="303" y1="46.7891" y2="46.7891"/><text fill="#D9B8FF" font-family="sans-serif" font-size="14" font-weight="bold" lengthAdjust="spacing" textLength="29" x="88" y="68.7842">age</text><text fill="#D9B8FF" font-family="sans-serif" font-size="14" lengthAdjust="spacing" textLength="66" x="117" y="68.7842">: duration</text><text fill="#D9B8FF" font-family="sans-serif" font-size="14" font-weight="bold" lengthAdjust="spacing" textLength="43" x="88" y="95.0811">atime</text><text fill="#D9B8FF" font-family="sans-serif" font-size="14" lengthAdjust="spacing" textLength="70" x="131" y="95.0811">: datetime</text><text fill="#D9B8FF" font-family="sans-serif" font-size="14" font-weight="bold" lengthAdjust="spacing" textLength="43" x="88" y="121.3779">ctime</text><text fill="#D9B8FF" font-family="sans-serif" font-size="14" lengthAdjust="spacing" textLength="70" x="131" y="121.3779">: datetime</text><text fill="#D9B8FF" font-family="sans-serif" font-size="14" font-weight="bold" lengthAdjust="spacing" textLength="14" x="88" y="147.6748">id</text><text fill="#D9B8FF" font-family="sans-serif" font-size="14" lengthAdjust="spacing" textLength="48" x="102" y="147.6748">: string</text><text fill="#D9B8FF" font-family="sans-serif" font-size="14" font-weight="bold" lengthAdjust="spacing" textLength="33" x="88" y="173.9717">kind</text><text fill="#D9B8FF" font-family="sans-serif" font-size="14" lengthAdjust="spacing" textLength="48" x="121" y="173.9717">: string</text><text fill="#D9B8FF" font-family="sans-serif" font-size="14" font-weight="bold" lengthAdjust="spacing" textLength="90" x="88" y="200.2686">last_access</text><text fill="#D9B8FF" font-family="sans-serif" font-size="14" lengthAdjust="spacing" textLength="66" x="178" y="200.2686">: duration</text><text fill="#D9B8FF" font-family="sans-serif" font-size="14" font-weight="bold" lengthAdjust="spacing" textLength="90" x="88" y="226.5654">last_update</text><text fill="#D9B8FF" font-family="sans-serif" font-size="14" lengthAdjust="spacing" textLength="66" x="178" y="226.5654">: duration</text><text fill="#D9B8FF" font-family="sans-serif" font-size="14" font-weight="bold" lengthAdjust="spacing" textLength="48" x="88" y="252.8623">mtime</text><text fill="#D9B8FF" font-family="sans-serif" font-size="14" lengthAdjust="spacing" textLength="70" x="136" y="252.8623">: datetime</text><text fill="#D9B8FF" font-family="sans-serif" font-size="14" font-weight="bold" lengthAdjust="spacing" textLength="43" x="88" y="279.1592">name</text><text fill="#D9B8FF" font-family="sans-serif" font-size="14" lengthAdjust="spacing" textLength="48" x="131" y="279.1592">: string</text><text fill="#D9B8FF" font-family="sans-serif" font-size="14" font-weight="bold" lengthAdjust="spacing" textLength="34" x="88" y="305.4561">tags</text><text fill="#D9B8FF" font-family="sans-serif" font-size="14" lengthAdjust="spacing" textLength="171" x="122" y="305.4561">: dictionary[string, string]</text></g><!--reverse link aws_resource to aws_organizational_root--><g id="link_aws_resource_aws_organizational_root"><path codeLine="44" d="M115.7506,528.667 C137.8306,565.307 161.7,604.93 179.03,633.69 " fill="none" id="aws_resource-backto-aws_organizational_root" style="stroke:#FFAF37;stroke-width:2.0;"/><polygon fill="none" points="106.46,513.25,110.6116,531.7639,120.8896,525.5702,106.46,513.25" style="stroke:#FFAF37;stroke-width:2.0;"/></g><!--reverse link organizational_root to aws_organizational_root--><g id="link_organizational_root_aws_organizational_root"><path codeLine="45" d="M277.3209,511.2989 C256.5409,545.1389 223.01,599.77 202.25,633.6 " fill="none" id="organizational_root-backto-aws_organizational_root" style="stroke:#FFAF37;stroke-width:2.0;"/><polygon fill="none" points="286.74,495.96,272.208,508.1592,282.4339,514.4386,286.74,495.96" style="stroke:#FFAF37;stroke-width:2.0;"/></g><!--reverse link resource to aws_resource--><g id="link_resource_aws_resource"><path codeLine="46" d="M132.0102,335.21 C116.6802,380.25 107.12,408.34 96.85,438.51 " fill="none" id="resource-backto-aws_resource" style="stroke:#FFAF37;stroke-width:2.0;"/><polygon fill="none" points="137.81,318.17,126.3302,333.2767,137.6902,337.1433,137.81,318.17" style="stroke:#FFAF37;stroke-width:2.0;"/></g><!--reverse link resource to organizational_root--><g id="link_resource_organizational_root"><path codeLine="47" d="M250.0799,335.1756 C269.0399,389.8256 282.14,427.62 291.86,455.65 " fill="none" id="resource-backto-organizational_root" style="stroke:#FFAF37;stroke-width:2.0;"/><polygon fill="none" points="244.18,318.17,244.4113,337.1423,255.7484,333.209,244.18,318.17" style="stroke:#FFAF37;stroke-width:2.0;"/></g><!--SRC=[XPDFQy904CNl-HGBta85RMdLqaihbFPIIksj51bt9t4nsPNPISN- -UxT69KrYNeBx_tslPc1pBL2WVcIroB7V8Ra8hVGPWa4kRWdigknpIo9Jf90SZMecu_My5dW1N8KJvXz8Mi9TU9zhkN2e7FYCh0UG2vIieLHLJmJ6ESjD1nGumoSksScFIiOWs7KQ3PCaZfP3-rSgVxW1XkO9OMqHNgzdkgFwiZPgfDxxuc9_aRH3u_sOXaROpOgDjJ9AKiY6BAnwCu_EkChAALDAgu3xQsQYGpIWJwPWxAhaauWSs6DOoIql5xYkB4LZeOg6RJ2pyVWI9Qd4x1oKqif6FqDhAs1R4hMilY9ehy08NIs88bUZsCW4yUtleJye7liJCfXGefbWYfeWvSAwxpIWB7yzffiqRGAgkFORtme-2wUWfJ-BwWrR9nYMMRLdBobnq0bxOCPqYfHoys6jFwel8ijy-bNFJZLtM-tsprsuAZjNATVj0JlfBhNzlmV]--></g></svg>

<svg xmlns="http://www.w3.org/2000/svg" width="407" height="679" viewBox="0 0 407 679"><rect width="246" height="39.789" x="67.5" y="633.84" fill="#3D176E" rx="2.5" ry="2.5" style="stroke:#000d19;stroke-width:.5"/><circle cx="82.5" cy="653.735" r="11" fill="#ADD1B2" style="stroke:#181818;stroke-width:1"/><path d="M85.469 659.375q-.578.297-1.219.438-.64.156-1.344.156-2.5 0-3.828-1.64-1.312-1.657-1.312-4.782t1.312-4.781q1.328-1.656 3.828-1.656.703 0 1.344.156.656.156 1.219.453v2.719q-.625-.578-1.219-.844-.594-.281-1.219-.281-1.344 0-2.031 1.078-.687 1.062-.687 3.156t.687 3.172q.688 1.062 2.031 1.062.625 0 1.219-.265.594-.281 1.219-.86z"/><text x="101.5" y="659.62" fill="#D9B8FF" font-family="Helvetica" font-size="17" textLength="204">aws_organizational_root</text><rect width="155" height="74.086" x="7" y="438.76" fill="#3D176E" rx="2.5" ry="2.5" style="stroke:#000d19;stroke-width:.5"/><circle cx="22" cy="458.654" r="11" fill="#ADD1B2" style="stroke:#181818;stroke-width:1"/><path d="M24.969 464.295q-.578.297-1.219.438-.64.156-1.344.156-2.5 0-3.828-1.64-1.312-1.657-1.312-4.782t1.312-4.781q1.328-1.656 3.828-1.656.703 0 1.344.156.656.156 1.219.453v2.719q-.625-.579-1.219-.844-.594-.281-1.219-.281-1.343 0-2.031 1.078-.687 1.062-.687 3.156t.687 3.172q.688 1.062 2.031 1.062.625 0 1.219-.265.594-.281 1.219-.86z"/><text x="41" y="464.54" fill="#D9B8FF" font-family="Helvetica" font-size="17" textLength="113">aws_resource</text><path d="M8 478.549h153" style="stroke:#000d19;stroke-width:.5"/><text x="18" y="500.544" fill="#D9B8FF" font-family="sans-serif" font-size="14" font-weight="bold" textLength="26">arn</text><text x="44" y="500.544" fill="#D9B8FF" font-family="sans-serif" font-size="14" textLength="48">: string</text><rect width="204" height="39.789" x="196.5" y="455.9" fill="#3D176E" rx="2.5" ry="2.5" style="stroke:#000d19;stroke-width:.5"/><circle cx="211.5" cy="475.795" r="11" fill="#ADD1B2" style="stroke:#181818;stroke-width:1"/><path d="M214.469 481.435q-.578.297-1.219.438-.64.156-1.344.156-2.5 0-3.828-1.64-1.312-1.657-1.312-4.782t1.312-4.781q1.328-1.656 3.828-1.656.703 0 1.344.156.656.156 1.219.453v2.719q-.625-.578-1.219-.844-.594-.281-1.219-.281-1.344 0-2.031 1.078-.687 1.062-.687 3.156t.687 3.172q.688 1.062 2.031 1.062.625 0 1.219-.265.594-.281 1.219-.86z"/><text x="230.5" y="481.68" fill="#D9B8FF" font-family="Helvetica" font-size="17" textLength="162">organizational_root</text><rect width="227" height="310.758" x="77" y="7" fill="#3D176E" rx="2.5" ry="2.5" style="stroke:#000d19;stroke-width:.5"/><circle cx="145.75" cy="26.895" r="11" fill="#ADD1B2" style="stroke:#181818;stroke-width:1"/><path d="M148.719 32.535q-.578.297-1.219.438-.64.156-1.344.156-2.5 0-3.828-1.64-1.312-1.657-1.312-4.782t1.312-4.781q1.328-1.656 3.828-1.656.703 0 1.344.156.656.156 1.219.453v2.719q-.625-.578-1.219-.844-.594-.281-1.219-.281-1.344 0-2.031 1.078-.687 1.062-.687 3.156t.687 3.172q.688 1.062 2.031 1.062.625 0 1.219-.265.594-.281 1.219-.86z"/><text x="171.25" y="32.78" fill="#D9B8FF" font-family="Helvetica" font-size="17" textLength="71">resource</text><path d="M78 46.789h225" style="stroke:#000d19;stroke-width:.5"/><text x="88" y="68.784" fill="#D9B8FF" font-family="sans-serif" font-size="14" font-weight="bold" textLength="29">age</text><text x="117" y="68.784" fill="#D9B8FF" font-family="sans-serif" font-size="14" textLength="66">: duration</text><text x="88" y="95.081" fill="#D9B8FF" font-family="sans-serif" font-size="14" font-weight="bold" textLength="43">atime</text><text x="131" y="95.081" fill="#D9B8FF" font-family="sans-serif" font-size="14" textLength="70">: datetime</text><text x="88" y="121.378" fill="#D9B8FF" font-family="sans-serif" font-size="14" font-weight="bold" textLength="43">ctime</text><text x="131" y="121.378" fill="#D9B8FF" font-family="sans-serif" font-size="14" textLength="70">: datetime</text><text x="88" y="147.675" fill="#D9B8FF" font-family="sans-serif" font-size="14" font-weight="bold" textLength="14">id</text><text x="102" y="147.675" fill="#D9B8FF" font-family="sans-serif" font-size="14" textLength="48">: string</text><text x="88" y="173.972" fill="#D9B8FF" font-family="sans-serif" font-size="14" font-weight="bold" textLength="33">kind</text><text x="121" y="173.972" fill="#D9B8FF" font-family="sans-serif" font-size="14" textLength="48">: string</text><text x="88" y="200.269" fill="#D9B8FF" font-family="sans-serif" font-size="14" font-weight="bold" textLength="90">last_access</text><text x="178" y="200.269" fill="#D9B8FF" font-family="sans-serif" font-size="14" textLength="66">: duration</text><text x="88" y="226.565" fill="#D9B8FF" font-family="sans-serif" font-size="14" font-weight="bold" textLength="90">last_update</text><text x="178" y="226.565" fill="#D9B8FF" font-family="sans-serif" font-size="14" textLength="66">: duration</text><text x="88" y="252.862" fill="#D9B8FF" font-family="sans-serif" font-size="14" font-weight="bold" textLength="48">mtime</text><text x="136" y="252.862" fill="#D9B8FF" font-family="sans-serif" font-size="14" textLength="70">: datetime</text><text x="88" y="279.159" fill="#D9B8FF" font-family="sans-serif" font-size="14" font-weight="bold" textLength="43">name</text><text x="131" y="279.159" fill="#D9B8FF" font-family="sans-serif" font-size="14" textLength="48">: string</text><text x="88" y="305.456" fill="#D9B8FF" font-family="sans-serif" font-size="14" font-weight="bold" textLength="34">tags</text><text x="122" y="305.456" fill="#D9B8FF" font-family="sans-serif" font-size="14" textLength="171">: dictionary[string, string]</text><g fill="none"><path d="M115.75 528.667c22.08 36.64 45.95 76.263 63.28 105.023" style="stroke:#ffaf37;stroke-width:2"/><path d="m106.46 513.25 4.152 18.514 10.278-6.194z" style="stroke:#ffaf37;stroke-width:2"/></g><path fill="none" d="M277.32 511.299c-20.78 33.84-54.31 88.471-75.07 122.301m84.49-137.64-14.532 12.2 10.226 6.279z" style="stroke:#ffaf37;stroke-width:2"/><g fill="none"><path d="M132.01 335.21c-15.33 45.04-24.89 73.13-35.16 103.3" style="stroke:#ffaf37;stroke-width:2"/><path d="m137.81 318.17-11.48 15.107 11.36 3.866z" style="stroke:#ffaf37;stroke-width:2"/></g><path fill="none" d="M250.08 335.176c18.96 54.65 32.06 92.444 41.78 120.474m-47.68-137.48.231 18.972 11.337-3.933z" style="stroke:#ffaf37;stroke-width:2"/></svg>
